X: 4422
T: "LULU" POLKA
R: Polka
%R: polka
B: James Kerr "Merry Melodies" v.4 p.47 #422
Z: 2016 John Chambers <jc:trillian.mit.edu>
M: 2/4
L: 1/8
K: D
|:\
fddB | (3(B/c/B/A) A2 | GEc2 | AFd2 |\
fddB | (3(B/c/B/A) A2 | GAf>e | dfdz H::\
gAe2 | fAd2 | cBcA | (df)a2 |\
gAe2 | fAd2 | cEc>B | AcA "_D.C."z :|

%%sep 1 1 500
%%sep 1 1 500

